X: 1
T:Carla Wiedemann
C:David Knight
S:StrathPotomacFiddlerJanuary2005
Z:David Knight
M:4/4
L:1/8
%V:1 treble clef
K:G
Q:1/2=40
P:A
||B
|"Em"e3/2B/2 B/2e3/2 "Am"c3/2A/2 A3/2c/2|"Em"B3/2G/2 G3/2B/2 "Am"A/2G/2F/2E/2 "B7"^D3/2B,/2
|"Em"E3/2G/2 B/2e3/2 "Am"c/2e3/2 A3/2c/2|"Em"B3/2G/2 "B7"A3/2F/2 "Em"G/2E3/2 EB
|"Em"e3/2B/2 B/2e3/2 "Am"c3/2A/2 A3/2c/2|"G"B3/2G/2 G3/2B/2 "D"A/2G/2F/2E/2 D3/2F/2
|"G"G3/2B/2 d/2g3/2 "C"e/2g3/2 c3/2e/2|"G"d3/2B/2 "D7"c3/2A/2 "G"B/2G3/2 "B7"FB||
P:B
|"Em"e/2b3/2 b3/2e/2 "Am"e/2c'3/2 c'3/2e/2|"D7"d/2c'3/2 c'3/2d'/2 "G"c'3/2b/2 b3/2a/2
|"G"b3/2g/2 d3/2B/2 !turn!G2 G3/2F/2|"C"E3/2A/2 "D"F3/2d/2 "G"B/2G3/2 G3/2g/2
|"Em"e/2b3/2 b3/2e/2 "B7"^d/2c'3/2 c'3/2d/2|"Em"e/2b3/2 b3/2e/2 "B"f/2b3/2 b3/2f/2
|"Em"g/2b3/2 e/2g3/2 "Am"c/2e3/2 A/2c3/2|"Em"B3/2G/2 "B7"A3/2F/2 "Em"G/2E3/2 !turn!E2||
